frontend/svgs/biz011.svg

<?xml version="1.0" encoding="UTF-8"?> <svg width="100px" height="100px" viewBox="0 0 100 100" version="1.1" xmlns="http://www.w3.org/2000/svg" xmlns:xlink="http://www.w3.org/1999/xlink"> <g id="10.-Chart-up-Copy" stroke="none" stroke-width="1" fill="none" fill-rule="evenodd" stroke-linecap="round" stroke-linejoin="round"> <path d="M2,85.0094776 C2,83.347389 3.35010672,82 5,82 L18.2,82 C19.8568542,82 21.2,83.3366311 21.2,85.0094776 L21.2,98 L2,98 L2,85.0094776 Z" id="Layer-1" stroke="#6FCCB3" stroke-width="4" fill="#6FCCB3"></path> <path d="M21,65.0074199 C21,63.3464677 22.3501067,62 24,62 L37.2,62 C38.8568542,62 40.2,63.3455393 40.2,65.0074199 L40.2,98 L21,98 L21,65.0074199 Z" id="Layer-2" stroke="#63BBA4" stroke-width="4" fill="#63BBA4"></path> <path d="M40,44.9910051 C40,43.3391186 41.3501067,42 43,42 L56.2,42 C57.8568542,42 59.2,43.3427539 59.2,44.9910051 L59.2,98 L40,98 L40,44.9910051 Z" id="Layer-3" stroke="#55AB94" stroke-width="4" fill="#55AB94"></path> <path d="M60,25.0026984 C60,23.3443539 61.3501067,22 63,22 L76.2,22 C77.8568542,22 79.2,23.3513777 79.2,25.0026984 L79.2,98 L60,98 L60,25.0026984 Z" id="Layer-4" stroke="#459680" stroke-width="4" fill="#459680"></path> <path d="M79,5.00494794 C79,3.34536102 80.3501067,2 82,2 L95.2,2 C96.8568542,2 98.2,3.33876028 98.2,5.00494794 L98.2,98 L79,98 L79,5.00494794 Z" id="Layer-5" stroke="#3A816D" stroke-width="4" fill="#3A816D"></path> <path d="M26.3116803,15.7771044 L31.2992615,20.7646856 C31.6740848,21.1395089 31.9796684,21.0128809 31.9802524,20.480305 L31.9994612,2.96325727 C32.0000535,2.42317816 31.5687805,1.9994166 31.0362045,2.0000006 L13.5191565,2.01920902 C12.9790774,2.01980124 12.859259,2.32468304 13.2347759,2.70019994 L18.2059145,7.67133854 L2.8405038,23.0367492 C1.719102,24.158151 1.71957859,25.9798435 2.84345836,27.1037233 L6.87929554,31.1395605 C8.00018202,32.260447 9.82402163,32.264763 10.9462696,31.142515 L26.3116803,15.7771044 L26.3116803,15.7771044 Z" id="Layer-6" stroke="#A4B8CE" stroke-width="4" fill="#A4B8CE"></path> </g> </svg>

<svg width="100" height="100" xmlns="http://www.w3.org/2000/svg"><g fill="none" fill-rule="evenodd" stroke-linecap="round" stroke-linejoin="round" stroke-width="4"><path d="M2 85.01A3.01 3.01 0 015 82h13.2c1.657 0 3 1.337 3 3.01V98H2V85.01z" stroke="#6FCCB3" fill="#6FCCB3"/><path d="M21 65.007A3.008 3.008 0 0124 62h13.2c1.657 0 3 1.346 3 3.007V98H21V65.007z" stroke="#63BBA4" fill="#63BBA4"/><path d="M40 44.991A3 3 0 0143 42h13.2c1.657 0 3 1.343 3 2.991V98H40V44.991z" stroke="#55AB94" fill="#55AB94"/><path d="M60 25.003A3.006 3.006 0 0163 22h13.2c1.657 0 3 1.351 3 3.003V98H60V25.003z" stroke="#459680" fill="#459680"/><path d="M79 5.005C79 3.345 80.35 2 82 2h13.2c1.657 0 3 1.339 3 3.005V98H79V5.005z" stroke="#3A816D" fill="#3A816D"/><path d="M26.312 15.777l4.987 4.988c.375.375.68.248.681-.285L32 2.963c0-.54-.431-.964-.964-.963l-17.517.02c-.54 0-.66.305-.284.68l4.97 4.971L2.842 23.037a2.877 2.877 0 00.002 4.067L6.88 31.14a2.879 2.879 0 004.067.003l15.366-15.366h0z" stroke="#A4B8CE" fill="#A4B8CE"/></g></svg>
